X: 1
T: Blackberry And Beech
M: 4/4
L: 1/8
R: reel
K: Emin
EF|:GFED B,2 B,D|GABG A2 GA|BAGB E2 GD|E2 A2 A2 GE|
D2 G2 G2 AB|cBAG E2 GE|DGFG AEGB|[1AGFA G2 BA:|[2AGFA G2 Bc||
|:d3 f g3 d|edce d2 GA|Beef gdga|bagb e2 ef|
gfeg B2 ge|dcBd G2 GE|DGBd egdB|[1AGFA G2 Bc:|[2AGFA G2||
